!!!COM: Bach, Johann Sebastian
!!!OPR: Joh. Seb. Bachs vierstimmige Choralgesänge
!!!XEN: Four-part Chorales
!!!OTL: 19. Befiehl du deine Wege
!!!SCT: BWV 271
!!!SCA: Thematisch-systematisches Verzeichnis der musikalischen Werke Johann Sebastian Bach: Bach-Werke-Verzeichnis (Schmieder)
!!!YOR: Bach Gesellschaft Edition xxxix
!!!ENC: Steven Rasmussen
!!!CDT: 1685/3//-1750/7/28/
!!!OCY: Deutschland
!!!YEC: Copyright (c) 1994, 2000 Center for Computer Assisted Research in the Humanities
!!!YEM: Rights to all derivative editions reserved
!!!YEN: United States of America
**kern	**kern	**kern	**silbe	**kern	**silbe
*I:[BASSO]	*I:[TENORE]	*I:[ALTO]	*I:[ALTO]	*I:[SOPRANO]	*I:[SOPRANO]
*>[A,A,B]	*>[A,A,B]	*>[A,A,B]	*	*>[A,A,B]	*
*>A	*>A	*>A	*	*>A	*
*clefF4	*clefGv2	*clefG2	*	*clefG2	*
*k[f#c#]	*k[f#c#]	*k[f#c#]	*	*k[f#c#]	*
*b:	*b:	*b:	*	*b:	*
*M4/4	*M4/4	*M4/4	*	*M4/4	*
4D	4A	4d	.	4f#	Be-der
=1	=1	=1	=1	=1	=1
4G	4G	4d	.	4b	-fiehlal-
4F#	4A	4d	.	4a	du-ler-
4E	8BL	4e	.	4g	dei--treu-
.	8c#J	.	.	.	.
4D	4d	4A	.	4f#	-ne-sten
=2	=2	=2	=2	=2	=2
(4GG	(4d	(4B	.	2e	We-Pfle-
4AA)	4c#)	4A)	.	.	.
4D;	4d;	4A;	.	4f#;	-ge,-ge
4AA#	4c#	4f#	.	4cc#	unddes,
=3	=3	=3	=3	=3	=3
8BBL	4c#	4f#	.	4dd	wasder
8C#J	.	.	.	.	.
8DL	4B	4f#	.	4dd	deinden
8EJ	.	.	.	.	.
4F#	4B	4f#	.	8cc#L	Her-Him-
.	.	.	.	8bJ	.
4FF#	4A#	8f#L	.	4cc#	-ze-mel
.	.	8eJ	.	.	.
=4	=4	=4	=4	=4	=4
2.BB;	2.B;	2.d;	.	2.b;	krÃ¤nkt,lenkt.
=:|!	=:|!	=:|!	=:|!	=:|!	=:|!
*>B	*>B	*>B	*	*>B	*
4B	8BL	4f#	.	4dd	Der
.	8AJ	.	.	.	.
=5	=5	=5	=5	=5	=5
4E	4G	4g	.	8cc#L	Wol-
.	.	.	.	8bJ	.
4F#	8dL	8f#L	.	4a	-ken,
.	8c#J	8eJ	.	.	.
8GL	8BL	4d	.	4b	Luft
8F#J	8AJ	.	.	.	.
4E	8GL	4g	.	4cc#	und
.	8AJ	.	.	.	.
=6	=6	=6	=6	=6	=6
2D	(4B	(4g	.	2dd	Win-
.	8AL	8f#L	.	.	.
.	8GJ)	8eJ)	.	.	.
4D;	4A;	4f#;	.	4dd;	-den
4D	4d	4f#	.	4a	gibt
=7	=7	=7	=7	=7	=7
8GL	4d	4g	.	4b	We-
8F#J	.	.	.	.	.
8EL	4cn	4f#	.	4a	-ge,
8D#J	.	.	.	.	.
8EL	4B	4f#	.	4g	Lauf
8F#J	.	.	.	.	.
8GL	4B	4e	.	4g	und
8EJ	.	.	.	.	.
=8	=8	=8	=8	=8	=8
2.B;	2.B;	2.d#;	.	2.f#;	Bahn,
4G#	4B	4e	.	4dd	der
=9	=9	=9	=9	=9	=9
4A	8AL	4e	.	8cc#L	wird
.	8BJ	.	.	8ddJ	.
4AA	4c#	8aL	.	4ee	auch
.	.	8g#J	.	.	.
4BB	4d	8f#L	.	4dd	We-
.	.	8g#J	.	.	.
4C#	4e	4a	.	4cc#	-ge
=10	=10	=10	=10	=10	=10
(4D	(4f#	(4a	.	2b	fin-
4E)	4e)	4g#)	.	.	.
4AA;	4e;	4a;	.	4cc#;	-den,
4D	8dL	4A	.	4f#	die
.	8c#J	.	.	.	.
=11	=11	=11	=11	=11	=11
4E	8BL	4e	.	4g	dein
.	8c#J	.	.	.	.
8F#L	4d	8AL	.	4f#	Fuss
8GJ	.	8BJ	.	.	.
8AL	8AL	8c#L	ge-	4e	ge-
8G	8BJ	8dJ	.	.	.
8F#	[4c#	[4e	.	8aL	-hen
8EJ	.	.	.	8gJ	.
=12	=12	=12	=12	=12	=12
4D	8c#L]	8eL]	.	2.f#;	kann.
.	8F#J	8c#J	.	.	.
8C#L	4B	4d	-hen	.	.
8BBJ	.	.	.	.	.
4F#;	4A#;	4c#;	kann.	.	.
==|!	==|!	==|!	==|!	==|!	==|!
*-	*-	*-	*-	*-	*-
!!!RWG: Key is interpreted using the Humdrum key tool.
!!!URL-pdf: https://s9.imslp.org/files/imglnks/usimg/6/6b/IMSLP24489-PMLP09471-CCARH_Bach_Chorales.pdf#page=12 Musedata edition
!!!URL-pdf: https://s9.imslp.org/files/imglnks/usimg/7/7a/IMSLP04155-Bach_-_BGA_253-438.pdf#page=11 	Bach-Gesellschaft Ausgabe, Band 39 (pp.175-276) Leipzig: Breitkopf und Härtel, 1892. Plate B.W. XXXIX.
!!!END: 1994/05/09
!!!EMD: Converted from MuseData to Humdrum Dec 19, 2000, by Andreas Kornstaedt using muse2kern.
!!!EED: Craig Stuart Sapp
!!!EEV: 2024/03/31
!!!filter-keyboard: satb2gs
!!!title: @{OTL} (@{SCT})
